X:1400
T:Frå måneskin til snødrev
T:Reinlendar
Z:[[http://www.bluerose.karenlmyers.org/IncipitsSchottis29.html|Karen Myers (#2990)]]
Z:Upptecknad 2/2009
M:2/4
L:1/16
R:[[!Schottis]]/[[!Reinlendar]]
O:Norge
K:D
F2 |: D2(DF) E2(EF) | D2(DF) A2>c2 | e2(Bd) cBA2 | (cB)AG FEDF |
D2(DF) E2(EF) | D2(DF) A2>c2 | e2(Bd) cEF^G |1 A2(cB) A2>F2 :|2 A2(cB) A2>g2 ||
|: f2A2 g2>f2 | a(BAG) F2>F2 | EAce aABc | d2(fd) b2(ag) | f2A2 g2>f2 |
a(BAG) F2>F2 | EAce aABc |1 d2d2 dbag :|2 d2d2 d2 z2 |]
(:musicend:)

(:music:)
